svgs/regular/square-pen.svg

<svg xmlns="http://www.w3.org/2000/svg" viewBox="0 0 448 512"><!--! Font Awesome Pro 6.4.2 by @fontawesome - https://fontawesome.com License - https://fontawesome.com/license (Commercial License) Copyright 2023 Fonticons, Inc. --><path d="M64 80c-8.8 0-16 7.2-16 16V416c0 8.8 7.2 16 16 16H384c8.8 0 16-7.2 16-16V96c0-8.8-7.2-16-16-16H64zM0 96C0 60.7 28.7 32 64 32H384c35.3 0 64 28.7 64 64V416c0 35.3-28.7 64-64 64H64c-35.3 0-64-28.7-64-64V96zm325.8 43.7l14.4 14.4c15.6 15.6 15.6 40.9 0 56.6l-21.4 21.4-71-71 21.4-21.4c15.6-15.6 40.9-15.6 56.6 0zM119.9 289L225.1 183.8l71 71L190.9 359.9c-4.1 4.1-9.2 7-14.9 8.4l-60.1 15c-5.5 1.4-11.2-.2-15.2-4.2s-5.6-9.7-4.2-15.2l15-60.1c1.4-5.6 4.3-10.8 8.4-14.9z"/></svg>

<svg xmlns="http://www.w3.org/2000/svg" viewBox="0 0 448 512"><!--! Font Awesome Pro 6.1.1 by @fontawesome - https://fontawesome.com License - https://fontawesome.com/license (Commercial License) Copyright 2022 Fonticons, Inc. --><path d="M340.1 154.1C355.8 169.7 355.8 195 340.1 210.7L318.7 232.1L247.8 161.1L269.2 139.7C284.8 124.1 310.1 124.1 325.8 139.7L340.1 154.1zM119.9 288.1L225.1 183.8L296.1 254.7L190.9 359.9C186.8 364 181.6 366.9 176 368.3L115.9 383.4C110.4 384.7 104.7 383.1 100.7 379.2C96.71 375.2 95.12 369.4 96.48 363.1L111.5 303.8C112.9 298.2 115.8 293.1 119.9 288.1V288.1zM0 96C0 60.65 28.65 32 64 32H384C419.3 32 448 60.65 448 96V416C448 451.3 419.3 480 384 480H64C28.65 480 0 451.3 0 416V96zM48 96V416C48 424.8 55.16 432 64 432H384C392.8 432 400 424.8 400 416V96C400 87.16 392.8 80 384 80H64C55.16 80 48 87.16 48 96z"/></svg>
